X: 06014
T: CROSSROADS REEL
C: Bob McQuillen 2 Aug 82
B: Bob's Note Book 6 #14
%R: reel
Z: 2021 John Chambers <jc:trillian.mit.edu>
M: C
L: 1/8
K: D
dB \
| A2dB ABde | fafd edBd | A2dB ABdf | edef a2fe |\
| d2de fafd | edfe dede | f2af edBd | ABde d2 :|
|: de \
| fafa fdfe | d2fe dBde | fafa fdfe | d2df edBd |\
| fafa fdfe | dedB AFEF | DFAB dfaf | edBA d2 :|
%%begintext align
%% Tim Sparling, who is
%% one of my favorite schoolboys, has a Rock Band
%% with a great sound, named "Crossroads". I
%% love to hear them play. I don't think you'll play
%% _this_ tune, though, Timmy! -- with love from MAC [squiggle]
%%endtext

%%sep 1 1 500

%%sep 1 1 500

